X:116
T:score200
L:1/8
Q:1/4=96
M:12/8
I:linebreak $
K:Emin
 (BEF GFE) (BFG AGF) |$ (BEF GFE) (B^cd dcB) | (efg f2 e ^d6) |$ (eBc =dcB) (cec AcA) | %4
 (dAB cBA) (BdB GBG) |$ (cGA BAG) (AcA FAF) | (BFG AGF) (GEG BeB) |$ (cAc ea^c) (^dBe efd | %8
 e6) z3 z3 |] %9
